Simply-Blue-Circles/scalable/actions/edit-clear-rtl.svg

<svg xmlns="http://www.w3.org/2000/svg" viewBox="0 0 24 24"><path fill="#2c89a0" d="M3.192 4.092h13.22c.608 0 1.088.308 1.406.776l4.763 7.152-4.763 7.152c-.318.467-.798.784-1.406.784H3.192a1.762 1.762 0 0 1-1.763-1.762V5.854c0-.973.789-1.762 1.763-1.762m2.644 11.092l1.247 1.247 3.16-3.16 3.16 3.16 1.246-1.247-3.16-3.16 3.16-3.16-1.247-1.247-3.16 3.16-3.159-3.16-1.247 1.248 3.16 3.16-3.16 3.159"/></svg>

<?xml version="1.0" encoding="UTF-8" standalone="no"?>
<svg
   xmlns:dc="http://purl.org/dc/elements/1.1/"
   xmlns:cc="http://creativecommons.org/ns#"
   xmlns:rdf="http://www.w3.org/1999/02/22-rdf-syntax-ns#"
   xmlns:svg="http://www.w3.org/2000/svg"
   xmlns="http://www.w3.org/2000/svg"
   xmlns:sodipodi="http://sodipodi.sourceforge.net/DTD/sodipodi-0.dtd"
   xmlns:inkscape="http://www.inkscape.org/namespaces/inkscape"
   viewBox="0 0 24 24"
   version="1.1"
   id="svg4"
   sodipodi:docname="edit-clear-rtl.svg"
   inkscape:version="0.92.4 (5da689c313, 2019-01-14)">
  <metadata
     id="metadata10">
    <rdf:RDF>
      <cc:Work
         rdf:about="">
        <dc:format>image/svg+xml</dc:format>
        <dc:type
           rdf:resource="http://purl.org/dc/dcmitype/StillImage" />
        <dc:title></dc:title>
      </cc:Work>
    </rdf:RDF>
  </metadata>
  <defs
     id="defs8" />
  <sodipodi:namedview
     pagecolor="#ffffff"
     bordercolor="#666666"
     borderopacity="1"
     objecttolerance="10"
     gridtolerance="10"
     guidetolerance="10"
     inkscape:pageopacity="0"
     inkscape:pageshadow="2"
     inkscape:window-width="1078"
     inkscape:window-height="480"
     id="namedview6"
     showgrid="false"
     inkscape:zoom="9.8333333"
     inkscape:cx="-0.81355932"
     inkscape:cy="12"
     inkscape:window-x="0"
     inkscape:window-y="28"
     inkscape:window-maximized="0"
     inkscape:current-layer="svg4" />
  <path
     d="m 3.2,4.1 h 13.2 c 0.61,0 1.09,0.3 1.4,0.77 l 4.77,7.15 -4.76,7.15 c -0.32,0.47 -0.8,0.79 -1.4,0.79 H 3.18 A 1.76,1.76 0 0 1 1.42,18.19 V 5.85 c 0,-0.97 0.79,-1.76 1.76,-1.76 m 2.65,11.1 1.24,1.24 3.16,-3.16 3.16,3.16 1.25,-1.25 L 11.48,12.02 14.64,8.86 13.39,7.62 10.23,10.78 7.07,7.62 5.83,8.87 9,12.03 5.84,15.18"
     id="path2"
     inkscape:connector-curvature="0"
     style="fill:#2c89a0" />
</svg>
